actions/22x22-light/go-previous-context.svg

<svg viewBox="0 0 22 22" xmlns="http://www.w3.org/2000/svg"><path d="m6 3-4 8 4 8h14v-16zm5.435547 4v .5917969c-.71072 0-.728516.2391587-.728516 1.1054687v1.0175782c0 .4154702-.123616 1.0327122-.722656 1.2890622.59904.25635.722656.875556.722656 1.291016v1.007812c0 .86631.017696 1.105469.728516 1.105469v.591797c-1.0661 0-1.5214745-.352246-1.5214845-1.253906v-1.222656c0-.556911-.0404006-1.201172-.6191406-1.201172h-.2949219v-.644532h.2949219c.57874 0 .6191506-.644261.6191406-1.2011715v-1.2226563c0-.9016599.4553845-1.2539062 1.5214845-1.2539062zm3.136719 0c1.06609 0 1.513672.3522463 1.513672 1.2539062v1.2226563c0 .5569105.020505 1.2011715.609374 1.2011715h.304688v.644532h-.304688c-.588869 0-.609374.644261-.609374 1.201172v1.222656c0 .90166-.447582 1.253906-1.513672 1.253906v-.591797c.7107 0 .720703-.239159.720703-1.105469v-1.007812c0-.41546.123616-1.034666.722656-1.291016-.59904-.25635-.722656-.873592-.722656-1.2890622v-1.0175782c0-.86631-.010003-1.1054687-.720703-1.1054687z" fill="#4d4d4d"/></svg>

<svg xmlns="http://www.w3.org/2000/svg" viewBox="0 0 22 22">
  <defs id="defs3051">
    <style type="text/css" id="current-color-scheme">
      .ColorScheme-Text {
        color:#4d4d4d;
      }
      </style>
  </defs>
 <path 
       style="fill:currentColor;fill-opacity:1;stroke:none"
	 class="ColorScheme-Text"
        d="M 6 3 L 2 11 L 6 19 L 20 19 L 20 3 L 6 3 z M 11.435547 7 L 11.435547 7.5917969 C 10.724827 7.5917969 10.707031 7.8309556 10.707031 8.6972656 L 10.707031 9.7148438 C 10.707031 10.130314 10.583415 10.747556 9.984375 11.003906 C 10.583415 11.260256 10.707031 11.879462 10.707031 12.294922 L 10.707031 13.302734 C 10.707031 14.169044 10.724727 14.408203 11.435547 14.408203 L 11.435547 15 C 10.369447 15 9.9140725 14.647754 9.9140625 13.746094 L 9.9140625 12.523438 C 9.9140625 11.966527 9.8736619 11.322266 9.2949219 11.322266 L 9 11.322266 L 9 10.677734 L 9.2949219 10.677734 C 9.8736619 10.677734 9.9140725 10.033473 9.9140625 9.4765625 L 9.9140625 8.2539062 C 9.9140625 7.3522463 10.369447 7 11.435547 7 z M 14.572266 7 C 15.638356 7 16.085938 7.3522463 16.085938 8.2539062 L 16.085938 9.4765625 C 16.085938 10.033473 16.106443 10.677734 16.695312 10.677734 L 17 10.677734 L 17 11.322266 L 16.695312 11.322266 C 16.106443 11.322266 16.085938 11.966527 16.085938 12.523438 L 16.085938 13.746094 C 16.085938 14.647754 15.638356 15 14.572266 15 L 14.572266 14.408203 C 15.282966 14.408203 15.292969 14.169044 15.292969 13.302734 L 15.292969 12.294922 C 15.292969 11.879462 15.416585 11.260256 16.015625 11.003906 C 15.416585 10.747556 15.292969 10.130314 15.292969 9.7148438 L 15.292969 8.6972656 C 15.292969 7.8309556 15.282966 7.5917969 14.572266 7.5917969 L 14.572266 7 z "
     />
</svg>
